X:1
T:141 - Descanso Aos Domingos
T:Letra: Antônio José dos Santos Neves (1827-1874)
T:Música: John Walter Claney (1844-1909)
M:3/4
L:1/4
K:Bb
V:1
F | "Bb"FDF | B3/c/ d | "C7"dcB | "F7"AGF | "Bb"FDF | B3/c/ d | "Gm"dcB | "F"c2F | "Bb"d3/c/ B | "Eb"AGB | "C7"B3/A/ G | "F7"GFF | "Bb"FDF | "Eb"G3/B/ "Edim"B | "F7"AGA | "Bb"B2 |]
w: 1.~Na ter-ra,aos do-min-gos, Je-sus, des-can-sa-mos, Mas tens lá no céu um des-can-so me-lhor; Se,a-qui re-u-ni-dos, pra-ze-res go-za-mos, Con-ti-go te-re-mos um go-zo mai-or.
w: 2.~Mais paz ea-le-gri-a no céu go-za-re-mos, Quea-que-las que te-mos a-qui, com Je-sus; Sem do-res, sem pran-tos, a-le-gres, ve-re-mos A-que-le que pa-raa man-são nos con-duz.
w: 3.~Sem me-do dea-ta-ques de vis i-ni-mi-gos, E sem os cui-da-dos mun-da-nos da-qui, Sem som-bra de noi-te, sem nu-vens de di-a, Con-ti-go se-re-mos di-to-sos a-li.
w: 4.~Je-sus, eu bem sei que Tu tens pre-pa-ra-do Aau-ro-ra de go-zos e-ter-nos pra mim; E-xaus-to, na sen-da de dor e pe-ca-do, Eu que-ro des-can-so Con-ti-go, sem fim.        
W:
W:  
W: 1. Na terra, aos domingos, Jesus, descansamos,
W: Mas tens lá no céu um descanso melhor;
W: Se, aqui reunidos, prazeres gozamos,
W: Contigo teremos um gozo maior.
W: 
W: 2. Mais paz e alegria no céu gozaremos,
W: Que aquelas que temos aqui, com Jesus;
W: Sem dores, sem prantos, alegres, veremos
W: Aquele que para a mansão nos conduz.
W: 
W:
W:
W: 3. Sem medo de ataques de vis inimigos,
W: E sem os cuidados mundanos daqui,
W: Sem sombra de noite, sem nuvens de dia,
W: Contigo seremos ditosos ali.
W: 
W: 4. Jesus, eu bem sei que Tu tens preparado
W: A aurora de gozos eternos pra mim;
W: Exausto, na senda de dor e pecado,
W: Eu quero descanso Contigo, sem fim.
W:         
W:





